images/logo-dark.svg

<svg width="143" height="33" viewBox="0 0 143 33" fill="none" xmlns="http://www.w3.org/2000/svg">
<path d="M0.876465 6.73727V32.6084H4.63485V13.8746H4.87774L12.599 32.5705H15.7182L23.4395 13.8872H23.6824V32.6084H27.4408V6.73727H22.647L14.312 26.848H14.0052L5.67032 6.73727H0.876465Z" fill="black"/>
<path d="M41.3398 33C45.6223 33 48.652 30.9157 49.5213 27.7576L45.9035 27.1133C45.2132 28.945 43.5514 29.8798 41.3781 29.8798C38.1055 29.8798 35.9068 27.7828 35.8045 24.0436H49.7642V22.7046C49.7642 15.6936 45.52 12.9524 41.0713 12.9524C35.6 12.9524 31.995 17.0706 31.995 23.033C31.995 29.0587 35.5488 33 41.3398 33ZM35.8173 21.214C35.9707 18.4601 37.9905 16.0726 41.0969 16.0726C44.0627 16.0726 46.0058 18.2454 46.0186 21.214H35.8173Z" fill="black"/>
<path d="M68.7191 17.9422C67.9265 14.9231 65.536 12.9524 61.2918 12.9524C56.8559 12.9524 53.7111 15.2641 53.7111 18.7001C53.7111 21.454 55.3986 23.2857 59.0802 24.0942L62.404 24.8142C64.296 25.2311 65.178 26.0648 65.178 27.2775C65.178 28.7808 63.5545 29.9556 61.0489 29.9556C58.7607 29.9556 57.2905 28.9829 56.8303 27.0754L53.1359 27.6312C53.7751 31.0672 56.6642 33 61.0745 33C65.8172 33 69.1026 30.5114 69.1026 26.9996C69.1026 24.2584 67.3385 22.5656 63.7335 21.7445L60.6143 21.0371C58.4539 20.5318 57.5206 19.8118 57.5334 18.498C57.5206 17.0074 59.157 15.9463 61.3302 15.9463C63.7079 15.9463 64.8073 17.2474 65.2547 18.5486L68.7191 17.9422Z" fill="black"/>
<path d="M82.4711 13.2051H78.4442V8.55633H74.6219V13.2051H71.7456V16.2368H74.6219V27.6944C74.6091 31.2188 77.3321 32.9242 80.349 32.861C81.5634 32.8484 82.3816 32.621 82.829 32.4568L82.1387 29.3366C81.883 29.3871 81.41 29.5008 80.7964 29.5008C79.5564 29.5008 78.4442 29.0966 78.4442 26.9112V16.2368H82.4711V13.2051Z" fill="black"/>
<path d="M94.7593 33C100.295 33 103.912 28.9955 103.912 22.9951C103.912 16.9569 100.295 12.9524 94.7593 12.9524C89.224 12.9524 85.6062 16.9569 85.6062 22.9951C85.6062 28.9955 89.224 33 94.7593 33ZM94.7721 29.8293C91.1543 29.8293 89.4669 26.7091 89.4669 22.9825C89.4669 19.2686 91.1543 16.1105 94.7721 16.1105C98.3643 16.1105 100.052 19.2686 100.052 22.9825C100.052 26.7091 98.3643 29.8293 94.7721 29.8293Z" fill="black"/>
<path d="M108.053 8.8932H109.11V5.52456H111.019C111.095 5.52456 111.168 5.52456 111.24 5.52035L113.081 8.8932H114.308L112.335 5.33087C113.448 4.95611 113.967 4.05921 113.967 2.91387C113.967 1.38956 113.047 0.269491 111.002 0.269491H108.053V8.8932ZM109.11 4.58135V1.19587H110.968C112.382 1.19587 112.928 1.87801 112.928 2.91387C112.928 3.94973 112.382 4.58135 110.985 4.58135H109.11Z" fill="black"/>
<path d="M119.717 6.24882C119.717 7.46153 118.779 8.01735 118.029 8.01735C117.194 8.01735 116.598 7.411 116.598 6.46778V2.42542H115.592V6.53515C115.592 8.18579 116.478 8.97742 117.706 8.97742C118.694 8.97742 119.342 8.45528 119.649 7.79839H119.717V8.8932H120.722V2.42542H119.717V6.24882Z" fill="black"/>
<path d="M127.201 3.87393C126.885 2.95598 126.178 2.3412 124.882 2.3412C123.502 2.3412 122.479 3.11599 122.479 4.21079C122.479 5.10348 123.016 5.70142 124.218 5.97933L125.309 6.23198C125.969 6.38357 126.28 6.69516 126.28 7.14151C126.28 7.69733 125.684 8.1521 124.746 8.1521C123.924 8.1521 123.408 7.8026 123.229 7.10782L122.275 7.34363C122.509 8.44264 123.425 9.02795 124.763 9.02795C126.284 9.02795 127.32 8.20684 127.32 7.09098C127.32 6.18987 126.749 5.62141 125.581 5.33929L124.61 5.10348C123.834 4.914 123.485 4.65714 123.485 4.16027C123.485 3.60444 124.081 3.2002 124.882 3.2002C125.76 3.2002 126.122 3.68023 126.297 4.12658L127.201 3.87393Z" fill="black"/>
<path d="M133.47 3.87393C133.155 2.95598 132.447 2.3412 131.152 2.3412C129.771 2.3412 128.748 3.11599 128.748 4.21079C128.748 5.10348 129.285 5.70142 130.487 5.97933L131.578 6.23198C132.238 6.38357 132.549 6.69516 132.549 7.14151C132.549 7.69733 131.953 8.1521 131.015 8.1521C130.193 8.1521 129.677 7.8026 129.498 7.10782L128.544 7.34363C128.778 8.44264 129.694 9.02795 131.032 9.02795C132.554 9.02795 133.589 8.20684 133.589 7.09098C133.589 6.18987 133.018 5.62141 131.851 5.33929L130.879 5.10348C130.104 4.914 129.754 4.65714 129.754 4.16027C129.754 3.60444 130.351 3.2002 131.152 3.2002C132.03 3.2002 132.392 3.68023 132.566 4.12658L133.47 3.87393Z" fill="black"/>
<path d="M135.103 8.8932H136.109V2.42542H135.103V8.8932ZM135.614 1.34745C136.006 1.34745 136.33 1.04428 136.33 0.673727C136.33 0.303177 136.006 0 135.614 0C135.222 0 134.898 0.303177 134.898 0.673727C134.898 1.04428 135.222 1.34745 135.614 1.34745Z" fill="black"/>
<path d="M139.877 9.04479C141.019 9.04479 141.615 8.43843 141.82 8.01735H141.871V8.8932H142.876V4.63187C142.876 2.57701 141.291 2.3412 140.456 2.3412C139.467 2.3412 138.343 2.67807 137.831 3.85709L138.786 4.19395C139.007 3.72234 139.531 3.21705 140.49 3.21705C141.415 3.21705 141.871 3.70129 141.871 4.53082V4.5645C141.871 5.04453 141.377 5.00242 140.183 5.15401C138.969 5.30981 137.644 5.57509 137.644 7.05729C137.644 8.32053 138.632 9.04479 139.877 9.04479ZM140.03 8.1521C139.229 8.1521 138.649 7.79839 138.649 7.10782C138.649 6.34988 139.348 6.11407 140.132 6.01302C140.558 5.96249 141.7 5.84458 141.871 5.64247V6.552C141.871 7.36047 141.223 8.1521 140.03 8.1521Z" fill="black"/>
</svg>

<svg xmlns="http://www.w3.org/2000/svg" width="143" height="33" fill="none"><path fill="#000" d="M.876 6.737v25.871h3.759V13.875h.243l7.721 18.696h3.12l7.72-18.684h.243v18.721h3.759V6.738h-4.794l-8.335 20.11h-.307L5.67 6.738H.876ZM41.34 33c4.282 0 7.312-2.084 8.181-5.242l-3.617-.645c-.69 1.832-2.353 2.767-4.526 2.767-3.273 0-5.471-2.097-5.574-5.836h13.96v-1.34c0-7.01-4.244-9.752-8.693-9.752-5.471 0-9.076 4.119-9.076 10.081 0 6.026 3.554 9.967 9.345 9.967Zm-5.523-11.786c.154-2.754 2.173-5.141 5.28-5.141 2.966 0 4.909 2.172 4.922 5.141H35.817ZM68.72 17.942c-.793-3.019-3.184-4.99-7.428-4.99-4.436 0-7.58 2.312-7.58 5.748 0 2.754 1.687 4.586 5.368 5.394l3.324.72c1.892.417 2.774 1.25 2.774 2.463 0 1.504-1.623 2.679-4.13 2.679-2.287 0-3.758-.973-4.218-2.88l-3.694.555c.64 3.436 3.528 5.369 7.938 5.369 4.743 0 8.029-2.489 8.029-6 0-2.742-1.764-4.434-5.37-5.256l-3.119-.707c-2.16-.505-3.093-1.225-3.08-2.539-.013-1.49 1.623-2.552 3.796-2.552 2.378 0 3.477 1.301 3.925 2.603l3.464-.607ZM82.471 13.205h-4.027V8.556h-3.822v4.65h-2.876v3.03h2.876v11.458c-.013 3.525 2.71 5.23 5.727 5.167 1.214-.013 2.033-.24 2.48-.404l-.69-3.12c-.256.05-.729.164-1.343.164-1.24 0-2.352-.404-2.352-2.59V16.237h4.027v-3.032ZM94.76 33c5.535 0 9.152-4.005 9.152-10.005 0-6.038-3.617-10.043-9.153-10.043-5.535 0-9.153 4.005-9.153 10.043 0 6 3.618 10.005 9.153 10.005Zm.012-3.17c-3.618 0-5.305-3.12-5.305-6.847 0-3.714 1.687-6.873 5.305-6.873 3.592 0 5.28 3.159 5.28 6.873 0 3.726-1.688 6.846-5.28 6.846ZM108.053 8.893h1.057V5.525h1.909c.076 0 .149 0 .221-.005l1.841 3.373h1.227l-1.973-3.562c1.113-.375 1.632-1.272 1.632-2.417 0-1.524-.92-2.645-2.965-2.645h-2.949v8.624Zm1.057-4.312V1.196h1.858c1.414 0 1.96.682 1.96 1.718s-.546 1.667-1.943 1.667h-1.875ZM119.717 6.249c0 1.213-.938 1.768-1.688 1.768-.835 0-1.431-.606-1.431-1.55V2.426h-1.006v4.11c0 1.65.886 2.442 2.114 2.442.988 0 1.636-.522 1.943-1.179h.068v1.095h1.005V2.425h-1.005V6.25ZM127.201 3.874c-.316-.918-1.023-1.533-2.319-1.533-1.38 0-2.403.775-2.403 1.87 0 .892.537 1.49 1.739 1.768l1.091.253c.66.152.971.463.971.91 0 .555-.596 1.01-1.534 1.01-.822 0-1.338-.35-1.517-1.044l-.954.236c.234 1.099 1.15 1.684 2.488 1.684 1.521 0 2.557-.821 2.557-1.937 0-.901-.571-1.47-1.739-1.752l-.971-.236c-.776-.189-1.125-.446-1.125-.943 0-.556.596-.96 1.397-.96.878 0 1.24.48 1.415.927l.904-.253ZM133.47 3.874c-.315-.918-1.023-1.533-2.318-1.533-1.381 0-2.404.775-2.404 1.87 0 .892.537 1.49 1.739 1.768l1.091.253c.66.152.971.463.971.91 0 .555-.596 1.01-1.534 1.01-.822 0-1.338-.35-1.517-1.044l-.954.236c.234 1.099 1.15 1.684 2.488 1.684 1.522 0 2.557-.821 2.557-1.937 0-.901-.571-1.47-1.738-1.752l-.972-.236c-.775-.189-1.125-.446-1.125-.943 0-.556.597-.96 1.398-.96.878 0 1.24.48 1.414.927l.904-.253ZM135.103 8.893h1.006V2.425h-1.006v6.468Zm.511-7.546c.392 0 .716-.303.716-.673 0-.37-.324-.674-.716-.674-.392 0-.716.303-.716.674 0 .37.324.673.716.673ZM139.877 9.045c1.142 0 1.738-.607 1.943-1.028h.051v.876h1.005V4.632c0-2.055-1.585-2.29-2.42-2.29-.989 0-2.113.336-2.625 1.515l.955.337c.221-.472.745-.977 1.704-.977.925 0 1.381.484 1.381 1.314v.034c0 .48-.494.437-1.688.589-1.214.156-2.539.421-2.539 1.903 0 1.264.988 1.988 2.233 1.988Zm.153-.893c-.801 0-1.381-.354-1.381-1.044 0-.758.699-.994 1.483-1.095.426-.05 1.568-.168 1.739-.37v.909c0 .808-.648 1.6-1.841 1.6Z"/></svg>
